svg/editor/translate_fill.svg

<?xml version="1.0" encoding="UTF-8"?>
<svg width="24px" height="24px" viewBox="0 0 24 24" version="1.1" xmlns="http://www.w3.org/2000/svg" xmlns:xlink="http://www.w3.org/1999/xlink">
    <title>translate_fill</title>
    <g id="页面-1" stroke="none" stroke-width="1" fill="none" fill-rule="evenodd">
        <g id="Editor" transform="translate(-192.000000, -144.000000)" fill-rule="nonzero">
            <g id="translate_fill" transform="translate(192.000000, 144.000000)">
                 <path d="M24,0 L24,24 L0,24 L0,0 L24,0 Z M12.5934901,23.257841 L12.5819402,23.2595131 L12.5108777,23.2950439 L12.4918791,23.2987469 L12.4918791,23.2987469 L12.4767152,23.2950439 L12.4056548,23.2595131 C12.3958229,23.2563662 12.3870493,23.2590235 12.3821421,23.2649074 L12.3780323,23.275831 L12.360941,23.7031097 L12.3658947,23.7234994 L12.3769048,23.7357139 L12.4804777,23.8096931 L12.4953491,23.8136134 L12.4953491,23.8136134 L12.5071152,23.8096931 L12.6106902,23.7357139 L12.6232938,23.7196733 L12.6232938,23.7196733 L12.6266527,23.7031097 L12.609561,23.275831 C12.6075724,23.2657013 12.6010112,23.2592993 12.5934901,23.257841 L12.5934901,23.257841 Z M12.8583906,23.1452862 L12.8445485,23.1473072 L12.6598443,23.2396597 L12.6498822,23.2499052 L12.6498822,23.2499052 L12.6471943,23.2611114 L12.6650943,23.6906389 L12.6699349,23.7034178 L12.6699349,23.7034178 L12.678386,23.7104931 L12.8793402,23.8032389 C12.8914285,23.8068999 12.9022333,23.8029875 12.9078286,23.7952264 L12.9118235,23.7811639 L12.8776777,23.1665331 C12.8752882,23.1545897 12.8674102,23.1470016 12.8583906,23.1452862 L12.8583906,23.1452862 Z M12.1430473,23.1473072 C12.1332178,23.1423925 12.1221763,23.1452606 12.1156365,23.1525954 L12.1099173,23.1665331 L12.0757714,23.7811639 C12.0751323,23.7926639 12.0828099,23.8018602 12.0926481,23.8045676 L12.108256,23.8032389 L12.3092106,23.7104931 L12.3186497,23.7024347 L12.3186497,23.7024347 L12.3225043,23.6906389 L12.340401,23.2611114 L12.337245,23.2485176 L12.337245,23.2485176 L12.3277531,23.2396597 L12.1430473,23.1473072 Z" id="MingCute" fill-rule="nonzero"></path>
                <path d="M17,10.5 C17.7796706,10.5 18.4204457,11.0949121 18.4931332,11.8555442 L18.5,12 L18.5,12.5 L19.5,12.5 C20.5543909,12.5 21.4181678,13.31585 21.4945144,14.3507339 L21.5,14.5 L21.5,17.5 C21.5,18.5543909 20.68415,19.4181678 19.6492661,19.4945144 L19.5,19.5 L18.5,19.5 L18.5,20 C18.5,20.8284 17.8284,21.5 17,21.5 C16.2203294,21.5 15.5795543,20.9050879 15.5068668,20.1444558 L15.5,20 L15.5,19.5 L14.5,19.5 C13.4456091,19.5 12.5818322,18.68415 12.5054856,17.6492661 L12.5,17.5 L12.5,14.5 C12.5,13.4456091 13.31585,12.5818322 14.3507339,12.5054856 L14.5,12.5 L15.5,12.5 L15.5,12 C15.5,11.1716 16.1716,10.5 17,10.5 Z M5,14.5 C5.82843,14.5 6.5,15.1716 6.5,16 L6.5,17 C6.5,17.2761 6.72386,17.5 7,17.5 L10,17.5 C10.8284,17.5 11.5,18.1716 11.5,19 C11.5,19.8284 10.8284,20.5 10,20.5 L7,20.5 C5.067,20.5 3.5,18.933 3.5,17 L3.5,16 C3.5,15.1716 4.17157,14.5 5,14.5 Z M15.5,15 L14.5,15 L14.5,17 L15.5,17 L15.5,15 Z M19.5,15 L18.5,15 L18.5,17 L19.5,17 L19.5,15 Z M9.5,2.5 C10.3284,2.5 11,3.17157 11,4 C11,4.82843 10.3284,5.5 9.5,5.5 L5.5,5.5 L5.5,6.5 L9,6.5 C9.82843,6.5 10.5,7.17157 10.5,8 C10.5,8.82843 9.82843,9.5 9,9.5 L5.5,9.5 L5.5,10.5 L10,10.5 C10.8284,10.5 11.5,11.1716 11.5,12 C11.5,12.8284 10.8284,13.5 10,13.5 L4.1,13.5 C3.21635,13.5 2.5,12.7837 2.5,11.9 L2.5,4.1 C2.5,3.21635 3.21634,2.5 4.1,2.5 L9.5,2.5 Z M17,3.5 C18.933,3.5 20.5,5.067 20.5,7 L20.5,9 C20.5,9.82843 19.8284,10.5 19,10.5 C18.1716,10.5 17.5,9.82843 17.5,9 L17.5,7 C17.5,6.72386 17.2761,6.5 17,6.5 L14,6.5 C13.1716,6.5 12.5,5.82843 12.5,5 C12.5,4.17157 13.1716,3.5 14,3.5 L17,3.5 Z" id="形状" fill="#09244B"></path>
            </g>
        </g>
    </g>
</svg>

<svg xmlns="http://www.w3.org/2000/svg" width="24" height="24"><g fill="none" fill-rule="nonzero"><path d="M24 0v24H0V0h24ZM12.593 23.258l-.011.002-.071.035-.02.004-.014-.004-.071-.035c-.01-.004-.019-.001-.024.005l-.004.01-.017.428.005.02.01.013.104.074.015.004.012-.004.104-.074.012-.016.004-.017-.017-.427c-.002-.01-.009-.017-.017-.018Zm.265-.113-.013.002-.185.093-.01.01-.003.011.018.43.005.012.008.007.201.093c.012.004.023 0 .029-.008l.004-.014-.034-.614c-.003-.012-.01-.02-.02-.022Zm-.715.002a.023.023 0 0 0-.027.006l-.006.014-.034.614c0 .012.007.02.017.024l.015-.002.201-.093.01-.008.004-.011.017-.43-.003-.012-.01-.01-.184-.092Z"/><path fill="#09244B" d="M17 10.5a1.5 1.5 0 0 1 1.493 1.356L18.5 12v.5h1a2 2 0 0 1 1.995 1.85l.005.15v3a2 2 0 0 1-1.85 1.995l-.15.005h-1v.5a1.5 1.5 0 0 1-2.993.144L15.5 20v-.5h-1a2 2 0 0 1-1.995-1.85l-.005-.15v-3a2 2 0 0 1 1.85-1.995l.15-.005h1V12a1.5 1.5 0 0 1 1.5-1.5Zm-12 4A1.5 1.5 0 0 1 6.5 16v1a.5.5 0 0 0 .5.5h3a1.5 1.5 0 0 1 0 3H7A3.5 3.5 0 0 1 3.5 17v-1A1.5 1.5 0 0 1 5 14.5Zm10.5.5h-1v2h1v-2Zm4 0h-1v2h1v-2ZM9.5 2.5a1.5 1.5 0 0 1 0 3h-4v1H9a1.5 1.5 0 1 1 0 3H5.5v1H10a1.5 1.5 0 0 1 0 3H4.1a1.6 1.6 0 0 1-1.6-1.6V4.1a1.6 1.6 0 0 1 1.6-1.6h5.4Zm7.5 1A3.5 3.5 0 0 1 20.5 7v2a1.5 1.5 0 0 1-3 0V7a.5.5 0 0 0-.5-.5h-3a1.5 1.5 0 0 1 0-3h3Z"/></g></svg>
